X:1
T:Title
L:1/8
Q:1/4=100
M:4/4
K:Eb
V:1 treble nm="Grand Piano"
V:1
 z ccB dcBA | GFGA G4- | GccB dcBA | GFGA G4 | z CCE G4- | GAAB A2 G2- | GCCE G2 G2 | %7
 G c2 B AG F2- | FFFE DC =B,2- | B,FFA G2 F2- | F=B,B,C DE F2 | G d2 =B d2 c2 | z ccB dcBA | %13
 GFGA G4- | GccB dcBA |[M:8/4] GFGA G4 z8 |] %16

